X:14
T:Bon Gout. WCl.14
M:6/8
L:1/8
Q:3/8=120
S:William Clarke MS,Lincoln,1770.
R:.Jig
O:Lincoln
A:England
N:bar B5 as given in MS
Z:vmp.Barry Callaghan
K:D
d2d c2c|efe efg|d2d c2c|ecA A3|!
d2d c2c|efe efg|afd gec|d3 D3:|!
|:f2f fed|g2g efg|f2d d2f|ecA “sic”A3-|!
a2|faf def|gbg efg|afd gec|d3 D3:|

